X:1
T:Exhortation
T:G Major                    Jacob French, 1789
T:Transcribed from  The New American Melody, 1789.
T:Isaac Watts, 1717 (Psalm 100, Part 1)                88. 88. (L. M.)
%%score [ 1 2 3 4 ]
L:1/8
Q:1/4=110
M:2/2
K:G
V:1 treble nm="Tr." snm="Tr."
V:2 treble nm="C." snm="C."
V:3 treble-8 nm="T." snm="T."
V:4 bass nm="B." snm="B."
V:1
"_Ye  na – tions round the earth,  re – joice           re – joice,                          re    –    joice,     re – joice, ______  re – joice,                             re     –    joice, _________ re –" B4 dc Bc | %1
 dc Bc d2 d2 | d4 z2 d2 | d4 z2 d2 | d4 z2 A2 | (B>cBA G2) A2 | B4 z2 A2 | (G>FGA Bc) d2 | %8
"_–  joice, ________  Ye       nations round  the  earth, rejoice, Ye nations round the earth, rejoice  Before the Lord, your  sovereign King;" (G>FG>A Bc) d2 | %9
 e2 e2 d2 c2 | B2 AB A4 | d4 e2 f2 | g2 fe d2 d2 | d6 d2 | d2 dc Bc d2 | e4 d4 | d8 |: z8 | z8 | %19
"_Serve                 him      with      cheer – ful   heart   and     voice,   With  all  your  tongues  his   glo        –        –        ry       sing." d4 d2 d>c | %20
 B3 A GA Bc | B6 B2 | B2 AB c2 BA | (GABc d2) d2 | [Bd]8 :| %25
V:2
"_Ye  na – tions  round  the  earth,  re – joice ____                  re  –  joice,                     re–joice,                            re  –  joice, ______________________                         Ye" D4 G2 G2 | %1
 D2 G2 D2 G2 | (F3 E D4) | z2 D2 D4 | z2 D2 D4 | z4 z2 D2 | (D>ED>C B,>CD>E | D4) z2 D2 | %8
"_na  –   tions   round   the    earth,           re – joice,                  Ye nations round the earth, rejoice  Before the Lord, your  sovereign King;" D2 D2 G2 GF | %9
 E4 (F2 G2) | F8 | G4 G2 A2 | B2 A2 G2 F2 | G6 F2 | G2 F2 E2 F2 | G4 G4 | F8 |: z8 | z8 | %19
"_Serve                 him      with      cheer – ful   heart   and     voice,   With  all  your  tongues  his   glo        –        –        ry       sing." G4 G2 F2 | %20
 E2 E2 D2 D2 | D6 D2 | D2 D2 G2 F2 | (E2 DE DE) F2 | G8 :| %25
V:3
"_Ye  na – tions round  the  earth,  re – joice _________________________________         re – joice, _______   re –  joice,                           re    –    joice, ________     re –" G4 Bc d2 | %1
 g2 dc B2 G2 | (A2 A2 B2 B2 | A>BA>G F>GA>B | A4) z2 D2 | (G>AGF E2) D2 | G4 z2 A2 | %7
 (B>cBA G2) A2 | %8
"_– joice,                      re    –    joice, _______   re – joice,            Ye nations round the earth, rejoice  Before the Lord, your  sovereign King;                     Serve        him with" B4 z2 B2 | %9
 (c>dcB A2) G2 | d8 | G4 Bc d2 | g2 dc B2 A2 | G6 A2 | B2 A2 G2 AB | c4 B4 | A8 |: z8 | d4 d2 c2 | %19
"_cheer         –         –         ful        heart __________  and    voice,    With  all  your  tongues  his   glo        –        –        ry       sing." (B>cBA G2) A2 | %20
 (B3 c de) f2 | g6 d2 | g2 f2 e2 dc | B3 c B2 A2 | G8 :| %25
V:4
"_Ye  na–tions round the earth,  rejoice, Ye  nations  round  the     earth,   re    –    joice                                                                                  re    –    joice, ________     re –" G,4 G,2 G,2 | %1
 G,2 G,2 G,,2 G,,2 | D,2 D,2 G,2 G,2 | D,2 D,2 D,2 D,2 | D,8 | z8 | z4 z2 D,2 | %7
 (G,>A,G,F, E,2) D,2 | %8
"_– joice,                      re    –    joice, _______   re – joice,            Ye nations round the earth, rejoice  Before the Lord, your  sovereign King; Serve him with cheer     –     ful" G,4 z2 G,2 | %9
"_____________________________________________________________________________________________________\nEdited by B. C. Johnston, 2018. In original, second staff is incorrectly Treble Clef; interpreted from Alto Clef instead." (A,>B,A,G, F,2) E,2 | %10
 D,8 | G,4 E,2 D,2 | E,2 F,2 G,2 D,2 | G,,6 D,2 | G,2 D,2 E,2 D,2 | C,4 G,,4 | D,8 |: G,4 G,2 G,2 | %18
 (D,>E,D,C, B,,2) A,,2 | %19
"_heart ____________   and        voice, _____________________   With  all  your  tongues  his   glo        –        –        ry       sing." (G,,3 A,, B,,C,) D,2 | %20
 (G,3 A, B,CB,A, | G,6) G,2 | G,2 D,2 C,2 D,2 | (E,F, G,2 G,2) D,2 | G,,8 :| %25

